assets/svgs/misc-grey/MiscGrey76.svg

<svg xmlns="http://www.w3.org/2000/svg" fill="none" viewBox="0 0 36 45"><path fill="#1A1919" fill-rule="evenodd" d="M7.727 44.715c.042.307.451.381.635.149.265-.331 3.667-4.397 4.823-8.459.327-1.151 1.877-7.103 1.877-7.103.93 1.715 3.642 3.218 6.526 3.218C30.174 32.52 36 24.947 36 14.807 36 7.14 29.287 0 19.087 0 6.401.001 0 8.805 0 16.146c0 4.445 1.74 8.401 5.467 9.876.616.241 1.163.009 1.339-.647.124-.455.415-1.597.547-2.078.175-.648.11-.873-.384-1.439-1.078-1.227-1.765-2.818-1.765-5.068 0-6.533 5.053-12.381 13.152-12.381 7.172 0 11.113 4.242 11.113 9.904 0 7.454-3.409 13.744-8.465 13.744-2.797 0-4.889-2.236-4.22-4.977.806-3.277 2.361-6.809 2.361-9.173 0-2.115-1.175-3.879-3.603-3.879-2.858 0-5.153 2.859-5.153 6.688 0 2.441.854 4.093.854 4.093L7.806 34.893c-1.018 4.181-.153 9.305-.079 9.822" clip-rule="evenodd"/></svg>

<svg width="36" height="45" viewBox="0 0 36 45" fill="none" xmlns="http://www.w3.org/2000/svg">
<path fill-rule="evenodd" clip-rule="evenodd" d="M7.727,44.715 C7.769,45.022 8.178,45.096 8.362,44.864 C8.627,44.533 12.029,40.467 13.185,36.405 C13.512,35.254 15.062,29.302 15.062,29.302 C15.992,31.017 18.704,32.52 21.588,32.52 C30.174,32.52 36,24.947 36,14.807 C36,7.14 29.287,0 19.087,0 C6.401,0.001 0,8.805 0,16.146 C0,20.591 1.74,24.547 5.467,26.022 C6.083,26.263 6.63,26.031 6.806,25.375 C6.93,24.92 7.221,23.778 7.353,23.297 C7.528,22.649 7.463,22.424 6.969,21.858 C5.891,20.631 5.204,19.04 5.204,16.79 C5.204,10.257 10.257,4.409 18.356,4.409 C25.528,4.409 29.469,8.651 29.469,14.313 C29.469,21.767 26.06,28.057 21.004,28.057 C18.207,28.057 16.115,25.821 16.784,23.08 C17.59,19.803 19.145,16.271 19.145,13.907 C19.145,11.792 17.97,10.028 15.542,10.028 C12.684,10.028 10.389,12.887 10.389,16.716 C10.389,19.157 11.243,20.809 11.243,20.809 C11.243,20.809 8.318,32.791 7.806,34.893 C6.788,39.074 7.653,44.198 7.727,44.715" id="Fill-1" fill="#1A1919"/>
</svg>
